TGeo/prim_trap_z.svg

<svg viewBox="-600 -400 1200 800" width="1200" height="800" xmlns="http://www.w3.org/2000/svg"><path style="fill:rgb(0,126,126)" d="M50,419l132,-112l78,-563Z"/><path style="fill:rgb(0,151,151)" d="M-245,230l295,189l59,-581Z"/><path style="fill:rgb(0,155,155)" d="M109,-162l-350,-156l-4,548Z"/><path style="fill:rgb(0,137,137)" d="M-14,-427l-227,109l350,156Z"/><path style="fill:rgb(0,140,140)" d="M109,-162l151,-94l-274,-171Z"/><path style="fill:rgb(0,137,137)" d="M260,-256l-151,94l-59,581Z"/></svg>

<svg xmlns="http://www.w3.org/2000/svg" viewBox="-600 -400 1200 800" width="1200" height="800" style="background:rgb(255,255,255)"><path style="fill:rgb(0,126,126)" d="M50,419L182,307L260,-256z"/><path style="fill:rgb(0,151,151)" d="M-245,230L50,419L109,-162z"/><path style="fill:rgb(0,155,155)" d="M109,-162L-241,-318L-245,230z"/><path style="fill:rgb(0,137,137)" d="M-14,-427L-241,-318L109,-162z"/><path style="fill:rgb(0,140,140)" d="M109,-162L260,-256L-14,-427z"/><path style="fill:rgb(0,137,137)" d="M260,-256L109,-162L50,419z"/></svg>
